X: 11782
T: La VERGINELLA COME LA ROSA
C: Bertoni.
Q: "Moderate."
%R: air, march
B: W. Hamilton "Universal Tune-Book" Vol. 1 Glasgow 1844 p.178 #2
S: http://imslp.org/wiki/Hamilton's_Universal_Tune-Book_(Various)
Z: 2016 John Chambers <jc:trillian.mit.edu>
M: C
L: 1/8
K: G
% - - - - - - - - - - - - - - - - - - - - - - - - -
[|\
G4 B2d2 | (dcBc) A2z2 | B4 (cA)(BG) | A3B A2z2 |\
G4 B2d2 | (e3f) g2ze | (d2B2) A2d2 | G4 z4 |\
d4 d2d2 | (ed^cd) A2z2 | e4 (A3G) | (F3G) A2z2 |
d4 f2d2 | (B3^c) d2z2 | d4 ({f}e2d^c) | d4 z4 |\
G4 B2d2 | (dcBc) A2z2 | B4 (cABG) | (A3B) A2z2 |\
G4 B2d2 | (e3f) g2ze | (d2B2) A2d2 | G4 z4 |
B4 B2e2 | ({d}c3B) c4 | B4 e2d2 | (d2c2) B2z2 |\
B4 e2g2 | f4 B2g2 | (f2d2) ^c2f2 | B4 z4 |\
G4 B2d2 | (dcBc) A2z2 | B4 (cA)(BG) | A3B A2z2 |
G4 B2d2 | (e3f) g2ze | (d2B2) A2d2 | G4 z4 |\
e4 g2e2 | d4 G2z2 | e4 g2e2 | (d3c) B2z2 |\
G4 B2d2 | (e3f) g2ze | d2B2 (Ac)(ed) | G4 z4 |]
% - - - - - - - - - - - - - - - - - - - - - - - - -
%%begintext align
%% Introduced as "Love, soft Illusion,"
%% in "The Castle of Andalusia."
%%endtext
%%sep 1 1 300

%%sep 1 1 500
%%sep 1 1 500

